Origami/32x32/apps/reddit.svg

<svg width="32" height="32" version="1.1" viewBox="0 0 8.47 8.47" xmlns="http://www.w3.org/2000/svg">
 <g transform="translate(0,-288.53332)">
  <circle cx="4.233" cy="293.031" r="3.704" style="opacity:.2"/>
  <circle cx="4.233" cy="292.767" r="3.704" style="fill:#ff6a33"/>
  <path d="m4.4999835 290.64946a0.13230489 0.13230489 0 0 0 -0.1328084 0.11318l-0.2268593 1.47794a2.1166667 1.4552082 0 0 0 -1.3885457 0.41341 0.52916669 0.52916669 0 0 0 -0.3705201 -0.15192 0.52916669 0.52916669 0 0 0 -0.5291667 0.52916 0.52916669 0.52916669 0 0 0 0.2852539 0.46922 2.1166667 1.4552082 0 0 0 -0.020671 0.19224 2.1166667 1.4552082 0 0 0 2.1166667 1.45521 2.1166667 1.4552082 0 0 0 2.1166666 -1.45521 2.1166667 1.4552082 0 0 0 -0.021187 -0.19172 0.52916669 0.52916669 0 0 0 0.2857706 -0.46974 0.52916669 0.52916669 0 0 0 -0.5291666 -0.52916 0.52916669 0.52916669 0 0 0 -0.3715536 0.15244 2.1166667 1.4552082 0 0 0 -1.3074136 -0.41186l0.2010211-1.30018 0.6878135 0.15296a0.396875 0.396875 0 0 0 0.3932576 0.3483 0.396875 0.396875 0 0 0 0.396875 -0.39687 0.396875 0.396875 0 0 0 -0.396875 -0.39688 0.396875 0.396875 0 0 0 -0.3358967 0.18604l-0.8252728-0.18294a0.13230489 0.13230489 0 0 0 -0.027389 -4e-3zm-0.9281085 2.38177a0.396875 0.396875 0 0 1 0.396875 0.39688 0.396875 0.396875 0 0 1 -0.396875 0.39687 0.396875 0.396875 0 0 1 -0.396875 -0.39687 0.396875 0.396875 0 0 1 0.396875 -0.39688zm1.3229166 0a0.396875 0.396875 0 0 1 0.396875 0.39688 0.396875 0.396875 0 0 1 -0.396875 0.39687 0.396875 0.396875 0 0 1 -0.396875 -0.39687 0.396875 0.396875 0 0 1 0.396875 -0.39688zm0.2573486 1.31827a0.13276409 0.13276409 0 0 1 0.10542 0.22582s-0.08667 0.0919-0.2516642 0.16795c-0.1649945 0.076-0.4184526 0.14656-0.7756634 0.14056-0.3551515-6e-3 -0.6040966-0.0763-0.7673948-0.14831-0.1632982-0.072-0.2501141-0.15658-0.2501141-0.15658a0.13230489 0.13230489 0 0 1 0.082166 -0.22634 0.13230489 0.13230489 0 0 1 0.012919 -5.2e-4 0.13230489 0.13230489 0 0 1 0.094568 0.0413s0.037715 0.0423 0.1679485 0.0997c0.1302334 0.0574 0.3433042 0.11906 0.6661091 0.12505 0.3207454 5e-3 0.5293035-0.056 0.657841-0.11523 0.1285377-0.0592 0.166398-0.10542 0.166398-0.10542a0.13276409 0.13276409 0 0 1 0.091467 -0.0481z" style="opacity:.2"/>
  <path transform="matrix(.26458333 0 0 .26458333 0 288.53332)" d="m17.007812 6.9980469a0.50004997 0.50004997 0 0 0 -0.501953 0.4277343l-0.857421 5.5859378a8.0000001 5.4999996 0 0 0 -5.248047 1.5625 2.0000001 2.0000001 0 0 0 -1.400391 -0.574219 2.0000001 2.0000001 0 0 0 -2 2 2.0000001 2.0000001 0 0 0 1.078125 1.773438 8.0000001 5.4999996 0 0 0 -0.078125 0.726562 8.0000001 5.4999996 0 0 0 8 5.5 8.0000001 5.4999996 0 0 0 8 -5.5 8.0000001 5.4999996 0 0 0 -0.080078 -0.724609 2.0000001 2.0000001 0 0 0 1.080078 -1.775391 2.0000001 2.0000001 0 0 0 -2 -2 2.0000001 2.0000001 0 0 0 -1.404297 0.576172 8.0000001 5.4999996 0 0 0 -4.941406 -1.556641l0.759765-4.9140622 2.59961 0.578125a1.5 1.5 0 0 0 1.486328 1.3164062 1.5 1.5 0 0 0 1.5 -1.5 1.5 1.5 0 0 0 -1.5 -1.5 1.5 1.5 0 0 0 -1.269531 0.703125l-3.119141-0.6914062a0.50004997 0.50004997 0 0 0 -0.103516 -0.0136719zm-3.507812 9.0019531a1.5 1.5 0 0 1 1.5 1.5 1.5 1.5 0 0 1 -1.5 1.5 1.5 1.5 0 0 1 -1.5 -1.5 1.5 1.5 0 0 1 1.5 -1.5zm5 0a1.5 1.5 0 0 1 1.5 1.5 1.5 1.5 0 0 1 -1.5 1.5 1.5 1.5 0 0 1 -1.5 -1.5 1.5 1.5 0 0 1 1.5 -1.5zm0.972656 4.982422a0.50178556 0.50178556 0 0 1 0.398438 0.853516s-0.327572 0.347521-0.951172 0.634765c-0.623601 0.28732-1.581553 0.553927-2.931641 0.53125-1.342305-0.022942-2.2832-0.288421-2.90039-0.560547-0.61719-0.271937-0.945313-0.591797-0.945313-0.591797a0.50004997 0.50004997 0 0 1 0.310547 -0.855468 0.50004997 0.50004997 0 0 1 0.048828 -0.001953 0.50004997 0.50004997 0 0 1 0.357422 0.15625s0.142545 0.160008 0.634766 0.376953 1.297528 0.449979 2.517578 0.472656c1.212266 0.020712 2.000517-0.211799 2.486328-0.435547 0.485812-0.223635 0.628906-0.398438 0.628906-0.398438a0.50178556 0.50178556 0 0 1 0.345703 -0.18164z" style="fill:#ffffff"/>
  <path transform="matrix(.26458333 0 0 .26458333 0 288.53332)" d="M 16 2 A 14 14 0 0 0 2 16 A 14 14 0 0 0 2.0214844 16.585938 A 14 14 0 0 1 16 3 A 14 14 0 0 1 29.978516 16.414062 A 14 14 0 0 0 30 16 A 14 14 0 0 0 16 2 z" style="fill:#ffffff;opacity:.2"/>
 </g>
</svg>

<svg xmlns="http://www.w3.org/2000/svg" width="32" height="32" version="1.1" viewBox="0 0 8.47 8.47">
 <g transform="translate(0,-288.53332)">
  <circle style="opacity:0.2" cx="4.233" cy="293.031" r="3.704"/>
  <circle style="fill:#ff6a33" cx="4.233" cy="292.767" r="3.704"/>
  <path style="opacity:0.2" d="m 4.4999835,290.64946 a 0.13230489,0.13230489 0 0 0 -0.1328084,0.11318 l -0.2268593,1.47794 a 2.1166667,1.4552082 0 0 0 -1.3885457,0.41341 0.52916669,0.52916669 0 0 0 -0.3705201,-0.15192 0.52916669,0.52916669 0 0 0 -0.5291667,0.52916 0.52916669,0.52916669 0 0 0 0.2852539,0.46922 2.1166667,1.4552082 0 0 0 -0.020671,0.19224 2.1166667,1.4552082 0 0 0 2.1166667,1.45521 2.1166667,1.4552082 0 0 0 2.1166666,-1.45521 2.1166667,1.4552082 0 0 0 -0.021187,-0.19172 0.52916669,0.52916669 0 0 0 0.2857706,-0.46974 0.52916669,0.52916669 0 0 0 -0.5291666,-0.52916 0.52916669,0.52916669 0 0 0 -0.3715536,0.15244 2.1166667,1.4552082 0 0 0 -1.3074136,-0.41186 l 0.2010211,-1.30018 0.6878135,0.15296 a 0.396875,0.396875 0 0 0 0.3932576,0.3483 0.396875,0.396875 0 0 0 0.396875,-0.39687 0.396875,0.396875 0 0 0 -0.396875,-0.39688 0.396875,0.396875 0 0 0 -0.3358967,0.18604 L 4.527372,290.65308 a 0.13230489,0.13230489 0 0 0 -0.027389,-0.004 z m -0.9281085,2.38177 a 0.396875,0.396875 0 0 1 0.396875,0.39688 0.396875,0.396875 0 0 1 -0.396875,0.39687 0.396875,0.396875 0 0 1 -0.396875,-0.39687 0.396875,0.396875 0 0 1 0.396875,-0.39688 z m 1.3229166,0 a 0.396875,0.396875 0 0 1 0.396875,0.39688 0.396875,0.396875 0 0 1 -0.396875,0.39687 0.396875,0.396875 0 0 1 -0.396875,-0.39687 0.396875,0.396875 0 0 1 0.396875,-0.39688 z m 0.2573486,1.31827 a 0.13276409,0.13276409 0 0 1 0.10542,0.22582 c 0,0 -0.08667,0.0919 -0.2516642,0.16795 -0.1649945,0.076 -0.4184526,0.14656 -0.7756634,0.14056 -0.3551515,-0.006 -0.6040966,-0.0763 -0.7673948,-0.14831 -0.1632982,-0.072 -0.2501141,-0.15658 -0.2501141,-0.15658 a 0.13230489,0.13230489 0 0 1 0.082166,-0.22634 0.13230489,0.13230489 0 0 1 0.012919,-5.2e-4 0.13230489,0.13230489 0 0 1 0.094568,0.0413 c 0,0 0.037715,0.0423 0.1679485,0.0997 0.1302334,0.0574 0.3433042,0.11906 0.6661091,0.12505 0.3207454,0.005 0.5293035,-0.056 0.657841,-0.11523 0.1285377,-0.0592 0.166398,-0.10542 0.166398,-0.10542 a 0.13276409,0.13276409 0 0 1 0.091467,-0.0481 z"/>
  <path style="fill:#ffffff" d="M 17.007812 6.9980469 A 0.50004997 0.50004997 0 0 0 16.505859 7.4257812 L 15.648438 13.011719 A 8.0000001 5.4999996 0 0 0 10.400391 14.574219 A 2.0000001 2.0000001 0 0 0 9 14 A 2.0000001 2.0000001 0 0 0 7 16 A 2.0000001 2.0000001 0 0 0 8.078125 17.773438 A 8.0000001 5.4999996 0 0 0 8 18.5 A 8.0000001 5.4999996 0 0 0 16 24 A 8.0000001 5.4999996 0 0 0 24 18.5 A 8.0000001 5.4999996 0 0 0 23.919922 17.775391 A 2.0000001 2.0000001 0 0 0 25 16 A 2.0000001 2.0000001 0 0 0 23 14 A 2.0000001 2.0000001 0 0 0 21.595703 14.576172 A 8.0000001 5.4999996 0 0 0 16.654297 13.019531 L 17.414062 8.1054688 L 20.013672 8.6835938 A 1.5 1.5 0 0 0 21.5 10 A 1.5 1.5 0 0 0 23 8.5 A 1.5 1.5 0 0 0 21.5 7 A 1.5 1.5 0 0 0 20.230469 7.703125 L 17.111328 7.0117188 A 0.50004997 0.50004997 0 0 0 17.007812 6.9980469 z M 13.5 16 A 1.5 1.5 0 0 1 15 17.5 A 1.5 1.5 0 0 1 13.5 19 A 1.5 1.5 0 0 1 12 17.5 A 1.5 1.5 0 0 1 13.5 16 z M 18.5 16 A 1.5 1.5 0 0 1 20 17.5 A 1.5 1.5 0 0 1 18.5 19 A 1.5 1.5 0 0 1 17 17.5 A 1.5 1.5 0 0 1 18.5 16 z M 19.472656 20.982422 A 0.50178556 0.50178556 0 0 1 19.871094 21.835938 C 19.871094 21.835938 19.543522 22.183459 18.919922 22.470703 C 18.296321 22.758023 17.338369 23.02463 15.988281 23.001953 C 14.645976 22.979011 13.705081 22.713532 13.087891 22.441406 C 12.470701 22.169469 12.142578 21.849609 12.142578 21.849609 A 0.50004997 0.50004997 0 0 1 12.453125 20.994141 A 0.50004997 0.50004997 0 0 1 12.501953 20.992188 A 0.50004997 0.50004997 0 0 1 12.859375 21.148438 C 12.859375 21.148438 13.00192 21.308446 13.494141 21.525391 C 13.986362 21.742336 14.791669 21.97537 16.011719 21.998047 C 17.223985 22.018759 18.012236 21.786248 18.498047 21.5625 C 18.983859 21.338865 19.126953 21.164062 19.126953 21.164062 A 0.50178556 0.50178556 0 0 1 19.472656 20.982422 z" transform="matrix(0.26458333,0,0,0.26458333,0,288.53332)"/>
  <path style="opacity:0.2;fill:#ffffff" d="M 16 2 A 14 14 0 0 0 2 16 A 14 14 0 0 0 2.0214844 16.585938 A 14 14 0 0 1 16 3 A 14 14 0 0 1 29.978516 16.414062 A 14 14 0 0 0 30 16 A 14 14 0 0 0 16 2 z" transform="matrix(0.26458333,0,0,0.26458333,0,288.53332)"/>
 </g>
</svg>
